apps/wow-docs/public/component/dropdown/dropdown-component-list.svg

<svg width="300" height="228" viewBox="0 0 300 228" fill="none" xmlns="http://www.w3.org/2000/svg">
<rect width="300" height="42" transform="translate(0 186)" fill="#EBF4FE"/>
<path d="M21.552 202.632H18V213.064H16.592V202.632H13.024V201.384H21.552V202.632ZM27.7428 208.392C27.6681 207.709 27.4441 207.139 27.0708 206.68C26.7081 206.211 26.1588 205.976 25.4228 205.976C24.7508 205.976 24.1748 206.205 23.6948 206.664C23.2254 207.112 22.9428 207.693 22.8468 208.408L27.7428 208.392ZM21.4548 208.936C21.4548 208.125 21.6201 207.405 21.9508 206.776C22.2814 206.147 22.7454 205.656 23.3428 205.304C23.9401 204.952 24.6174 204.776 25.3748 204.776C26.9641 204.776 28.1001 205.523 28.7828 207.016C29.0068 207.613 29.1188 208.248 29.1188 208.92C29.1188 209.101 29.1134 209.251 29.1028 209.368C29.0921 209.475 29.0868 209.533 29.0868 209.544H22.8468C22.9534 210.237 23.2414 210.803 23.7108 211.24C24.1908 211.677 24.7508 211.896 25.3908 211.896C25.9028 211.896 26.3241 211.816 26.6548 211.656C26.9961 211.496 27.2308 211.341 27.3588 211.192C27.4974 211.032 27.6201 210.872 27.7268 210.712L28.8468 211.288C28.6014 211.789 28.1801 212.216 27.5828 212.568C26.9961 212.92 26.2601 213.096 25.3748 213.096C24.6174 213.096 23.9401 212.92 23.3428 212.568C22.7454 212.216 22.2814 211.725 21.9508 211.096C21.6201 210.467 21.4548 209.747 21.4548 208.936ZM34.6661 208.936L37.7541 213.064H36.0101L33.8821 210.12L31.7861 213.064H30.0261L33.0821 208.936L29.9941 204.792H31.7701L33.8821 207.784L36.0101 204.792H37.7701L34.6661 208.936ZM42.2314 213.096C41.5487 213.096 40.9887 212.872 40.5514 212.424C40.114 211.976 39.8847 211.4 39.8634 210.696V206.072H38.4874V204.84H39.8634V202.648H41.2714V204.84H43.0474V206.072H41.2714V210.6C41.2714 210.92 41.362 211.197 41.5434 211.432C41.7247 211.667 41.954 211.784 42.2314 211.784C42.3914 211.784 42.5354 211.773 42.6634 211.752C42.7914 211.731 42.9194 211.704 43.0474 211.672L43.3034 212.968C42.898 213.053 42.5407 213.096 42.2314 213.096Z" fill="#121212"/>
<rect width="300" height="42" transform="translate(0 124)" fill="#EBF4FE"/>
<path d="M21.552 140.632H18V151.064H16.592V140.632H13.024V139.384H21.552V140.632ZM27.7428 146.392C27.6681 145.709 27.4441 145.139 27.0708 144.68C26.7081 144.211 26.1588 143.976 25.4228 143.976C24.7508 143.976 24.1748 144.205 23.6948 144.664C23.2254 145.112 22.9428 145.693 22.8468 146.408L27.7428 146.392ZM21.4548 146.936C21.4548 146.125 21.6201 145.405 21.9508 144.776C22.2814 144.147 22.7454 143.656 23.3428 143.304C23.9401 142.952 24.6174 142.776 25.3748 142.776C26.9641 142.776 28.1001 143.523 28.7828 145.016C29.0068 145.613 29.1188 146.248 29.1188 146.92C29.1188 147.101 29.1134 147.251 29.1028 147.368C29.0921 147.475 29.0868 147.533 29.0868 147.544H22.8468C22.9534 148.237 23.2414 148.803 23.7108 149.24C24.1908 149.677 24.7508 149.896 25.3908 149.896C25.9028 149.896 26.3241 149.816 26.6548 149.656C26.9961 149.496 27.2308 149.341 27.3588 149.192C27.4974 149.032 27.6201 148.872 27.7268 148.712L28.8468 149.288C28.6014 149.789 28.1801 150.216 27.5828 150.568C26.9961 150.92 26.2601 151.096 25.3748 151.096C24.6174 151.096 23.9401 150.92 23.3428 150.568C22.7454 150.216 22.2814 149.725 21.9508 149.096C21.6201 148.467 21.4548 147.747 21.4548 146.936ZM34.6661 146.936L37.7541 151.064H36.0101L33.8821 148.12L31.7861 151.064H30.0261L33.0821 146.936L29.9941 142.792H31.7701L33.8821 145.784L36.0101 142.792H37.7701L34.6661 146.936ZM42.2314 151.096C41.5487 151.096 40.9887 150.872 40.5514 150.424C40.114 149.976 39.8847 149.4 39.8634 148.696V144.072H38.4874V142.84H39.8634V140.648H41.2714V142.84H43.0474V144.072H41.2714V148.6C41.2714 148.92 41.362 149.197 41.5434 149.432C41.7247 149.667 41.954 149.784 42.2314 149.784C42.3914 149.784 42.5354 149.773 42.6634 149.752C42.7914 149.731 42.9194 149.704 43.0474 149.672L43.3034 150.968C42.898 151.053 42.5407 151.096 42.2314 151.096Z" fill="#5EA5F9"/>
<rect width="300" height="42" transform="translate(0 62)" fill="white"/>
<path d="M21.552 78.632H18V89.064H16.592V78.632H13.024V77.384H21.552V78.632ZM27.7428 84.392C27.6681 83.7093 27.4441 83.1387 27.0708 82.68C26.7081 82.2107 26.1588 81.976 25.4228 81.976C24.7508 81.976 24.1748 82.2053 23.6948 82.664C23.2254 83.112 22.9428 83.6933 22.8468 84.408L27.7428 84.392ZM21.4548 84.936C21.4548 84.1253 21.6201 83.4053 21.9508 82.776C22.2814 82.1467 22.7454 81.656 23.3428 81.304C23.9401 80.952 24.6174 80.776 25.3748 80.776C26.9641 80.776 28.1001 81.5227 28.7828 83.016C29.0068 83.6133 29.1188 84.248 29.1188 84.92C29.1188 85.1013 29.1134 85.2507 29.1028 85.368C29.0921 85.4747 29.0868 85.5333 29.0868 85.544H22.8468C22.9534 86.2373 23.2414 86.8027 23.7108 87.24C24.1908 87.6773 24.7508 87.896 25.3908 87.896C25.9028 87.896 26.3241 87.816 26.6548 87.656C26.9961 87.496 27.2308 87.3413 27.3588 87.192C27.4974 87.032 27.6201 86.872 27.7268 86.712L28.8468 87.288C28.6014 87.7893 28.1801 88.216 27.5828 88.568C26.9961 88.92 26.2601 89.096 25.3748 89.096C24.6174 89.096 23.9401 88.92 23.3428 88.568C22.7454 88.216 22.2814 87.7253 21.9508 87.096C21.6201 86.4667 21.4548 85.7467 21.4548 84.936ZM34.6661 84.936L37.7541 89.064H36.0101L33.8821 86.12L31.7861 89.064H30.0261L33.0821 84.936L29.9941 80.792H31.7701L33.8821 83.784L36.0101 80.792H37.7701L34.6661 84.936ZM42.2314 89.096C41.5487 89.096 40.9887 88.872 40.5514 88.424C40.114 87.976 39.8847 87.4 39.8634 86.696V82.072H38.4874V80.84H39.8634V78.648H41.2714V80.84H43.0474V82.072H41.2714V86.6C41.2714 86.92 41.362 87.1973 41.5434 87.432C41.7247 87.6667 41.954 87.784 42.2314 87.784C42.3914 87.784 42.5354 87.7733 42.6634 87.752C42.7914 87.7307 42.9194 87.704 43.0474 87.672L43.3034 88.968C42.898 89.0533 42.5407 89.096 42.2314 89.096Z" fill="#2B72C5"/>
<rect width="300" height="42" fill="white"/>
<path d="M21.552 16.632H18V27.064H16.592V16.632H13.024V15.384H21.552V16.632ZM27.7428 22.392C27.6681 21.7093 27.4441 21.1387 27.0708 20.68C26.7081 20.2107 26.1588 19.976 25.4228 19.976C24.7508 19.976 24.1748 20.2053 23.6948 20.664C23.2254 21.112 22.9428 21.6933 22.8468 22.408L27.7428 22.392ZM21.4548 22.936C21.4548 22.1253 21.6201 21.4053 21.9508 20.776C22.2814 20.1467 22.7454 19.656 23.3428 19.304C23.9401 18.952 24.6174 18.776 25.3748 18.776C26.9641 18.776 28.1001 19.5227 28.7828 21.016C29.0068 21.6133 29.1188 22.248 29.1188 22.92C29.1188 23.1013 29.1134 23.2507 29.1028 23.368C29.0921 23.4747 29.0868 23.5333 29.0868 23.544H22.8468C22.9534 24.2373 23.2414 24.8027 23.7108 25.24C24.1908 25.6773 24.7508 25.896 25.3908 25.896C25.9028 25.896 26.3241 25.816 26.6548 25.656C26.9961 25.496 27.2308 25.3413 27.3588 25.192C27.4974 25.032 27.6201 24.872 27.7268 24.712L28.8468 25.288C28.6014 25.7893 28.1801 26.216 27.5828 26.568C26.9961 26.92 26.2601 27.096 25.3748 27.096C24.6174 27.096 23.9401 26.92 23.3428 26.568C22.7454 26.216 22.2814 25.7253 21.9508 25.096C21.6201 24.4667 21.4548 23.7467 21.4548 22.936ZM34.6661 22.936L37.7541 27.064H36.0101L33.8821 24.12L31.7861 27.064H30.0261L33.0821 22.936L29.9941 18.792H31.7701L33.8821 21.784L36.0101 18.792H37.7701L34.6661 22.936ZM42.2314 27.096C41.5487 27.096 40.9887 26.872 40.5514 26.424C40.114 25.976 39.8847 25.4 39.8634 24.696V20.072H38.4874V18.84H39.8634V16.648H41.2714V18.84H43.0474V20.072H41.2714V24.6C41.2714 24.92 41.362 25.1973 41.5434 25.432C41.7247 25.6667 41.954 25.784 42.2314 25.784C42.3914 25.784 42.5354 25.7733 42.6634 25.752C42.7914 25.7307 42.9194 25.704 43.0474 25.672L43.3034 26.968C42.898 27.0533 42.5407 27.096 42.2314 27.096Z" fill="#6B6B6B"/>
</svg>

<svg xmlns="http://www.w3.org/2000/svg" width="300" height="228" fill="none"><path fill="#EBF4FE" d="M0 186h300v42H0z"/><path fill="#121212" d="M21.552 202.632H18v10.432h-1.408v-10.432h-3.568v-1.248h8.528zm6.19 5.76q-.111-1.024-.671-1.712-.544-.704-1.648-.704-1.008 0-1.728.688-.704.672-.848 1.744zm-6.287.544q0-1.217.496-2.16.495-.944 1.392-1.472.895-.528 2.032-.528 2.384 0 3.408 2.24.336.896.336 1.904a5 5 0 0 1-.032.624h-6.24q.159 1.04.864 1.696.72.656 1.68.656.768 0 1.264-.24.512-.24.704-.464.207-.24.368-.48l1.12.576q-.369.752-1.264 1.28-.88.528-2.208.528-1.137 0-2.032-.528a3.63 3.63 0 0 1-1.392-1.472q-.495-.944-.496-2.16m13.211 0 3.088 4.128H36.01l-2.128-2.944-2.096 2.944h-1.76l3.056-4.128-3.088-4.144h1.776l2.112 2.992 2.128-2.992h1.76zm7.565 4.16q-1.023 0-1.68-.672-.655-.672-.688-1.728v-4.624h-1.376v-1.232h1.376v-2.192h1.408v2.192h1.776v1.232h-1.776v4.528q0 .48.272.832.273.352.688.352.24 0 .432-.032t.384-.08l.256 1.296a5.3 5.3 0 0 1-1.072.128"/><path fill="#EBF4FE" d="M0 124h300v42H0z"/><path fill="#5EA5F9" d="M21.552 140.632H18v10.432h-1.408v-10.432h-3.568v-1.248h8.528zm6.19 5.76q-.111-1.024-.671-1.712-.544-.704-1.648-.704-1.008 0-1.728.688-.704.672-.848 1.744zm-6.287.544q0-1.217.496-2.16.495-.944 1.392-1.472.895-.528 2.032-.528 2.384 0 3.408 2.24.336.896.336 1.904a5 5 0 0 1-.032.624h-6.24q.159 1.04.864 1.696.72.656 1.68.656.768 0 1.264-.24.512-.24.704-.464.207-.24.368-.48l1.12.576q-.369.752-1.264 1.28-.88.528-2.208.528-1.137 0-2.032-.528a3.63 3.63 0 0 1-1.392-1.472q-.495-.943-.496-2.16m13.211 0 3.088 4.128H36.01l-2.128-2.944-2.096 2.944h-1.76l3.056-4.128-3.088-4.144h1.776l2.112 2.992 2.128-2.992h1.76zm7.565 4.16q-1.023 0-1.68-.672-.655-.672-.688-1.728v-4.624h-1.376v-1.232h1.376v-2.192h1.408v2.192h1.776v1.232h-1.776v4.528q0 .48.272.832.273.352.688.352.24 0 .432-.032t.384-.08l.256 1.296a5.3 5.3 0 0 1-1.072.128"/><path fill="#fff" d="M0 62h300v42H0z"/><path fill="#2B72C5" d="M21.552 78.632H18v10.432h-1.408V78.632h-3.568v-1.248h8.528zm6.19 5.76q-.111-1.024-.671-1.712-.544-.704-1.648-.704-1.008 0-1.728.688-.704.672-.848 1.744zm-6.287.544q0-1.215.496-2.16.495-.945 1.392-1.472.895-.528 2.032-.528 2.384 0 3.408 2.24.336.896.336 1.904a5 5 0 0 1-.032.624h-6.24q.159 1.04.864 1.696.72.656 1.68.656.768 0 1.264-.24.512-.24.704-.464.207-.24.368-.48l1.12.576q-.369.752-1.264 1.28-.88.528-2.208.528-1.137 0-2.032-.528a3.63 3.63 0 0 1-1.392-1.472q-.495-.945-.496-2.16m13.211 0 3.088 4.128H36.01l-2.128-2.944-2.096 2.944h-1.76l3.056-4.128-3.088-4.144h1.776l2.112 2.992 2.128-2.992h1.76zm7.565 4.16q-1.023 0-1.68-.672-.655-.672-.688-1.728v-4.624h-1.376V80.84h1.376v-2.192h1.408v2.192h1.776v1.232h-1.776V86.6q0 .48.272.832.273.352.688.352.24 0 .432-.032t.384-.08l.256 1.296a5.3 5.3 0 0 1-1.072.128"/><path fill="#fff" d="M0 0h300v42H0z"/><path fill="#6B6B6B" d="M21.552 16.632H18v10.432h-1.408V16.632h-3.568v-1.248h8.528zm6.19 5.76q-.111-1.024-.671-1.712-.544-.704-1.648-.704-1.008 0-1.728.688-.704.672-.848 1.744zm-6.287.544q0-1.215.496-2.16.495-.944 1.392-1.472.895-.528 2.032-.528 2.384 0 3.408 2.24.336.896.336 1.904a5 5 0 0 1-.032.624h-6.24q.159 1.04.864 1.696.72.656 1.68.656.768 0 1.264-.24.512-.24.704-.464.207-.24.368-.48l1.12.576q-.369.752-1.264 1.28-.88.528-2.208.528-1.137 0-2.032-.528a3.63 3.63 0 0 1-1.392-1.472q-.495-.945-.496-2.16m13.211 0 3.088 4.128H36.01l-2.128-2.944-2.096 2.944h-1.76l3.056-4.128-3.088-4.144h1.776l2.112 2.992 2.128-2.992h1.76zm7.565 4.16q-1.023 0-1.68-.672-.655-.672-.688-1.728v-4.624h-1.376V18.84h1.376v-2.192h1.408v2.192h1.776v1.232h-1.776V24.6q0 .48.272.832.273.352.688.352.24 0 .432-.032t.384-.08l.256 1.296a5.3 5.3 0 0 1-1.072.128"/></svg>
